modules/hawcons-filled/icons/icon-26-cloud-moon-fog.svg

<?xml version="1.0" encoding="UTF-8" standalone="no"?>
<svg width="32px" height="32px" viewBox="0 0 32 32" version="1.1" xmlns="http://www.w3.org/2000/svg" xmlns:xlink="http://www.w3.org/1999/xlink" xmlns:sketch="http://www.bohemiancoding.com/sketch/ns">
    <!-- Generator: Sketch 3.0.3 (7891) - http://www.bohemiancoding.com/sketch -->
    <title>icon 26 cloud moon fog</title>
    <desc>Created with Sketch.</desc>
    <defs></defs>
    <g id="Page-1" stroke="none" stroke-width="1" fill="none" fill-rule="evenodd" sketch:type="MSPage">
        <g id="icon-26-cloud-moon-fog" sketch:type="MSArtboardGroup" fill="#929292">
            <path d="M3.10033317,18 C3.1711057,17.6523103 3.27804031,17.317599 3.4170437,17 L3.4170437,17 L29.5848643,17 C29.7233253,17.3175024 29.8297934,17.6521963 29.9002288,18 L3.10033317,18 L3.10033317,18 Z M3,19 C3,19.3424658 3.03433671,19.6768901 3.09977122,20 L3.09977122,20 L29.8996668,20 C29.9654594,19.6767757 30,19.3423353 30,19 L3,19 L3,19 Z M8.10101712,9 C7.78894826,9.30580294 7.50538699,9.64058822 7.25468917,10 L7.25468917,10 L25.742838,10 C26.2559298,9.37871872 26.6351943,8.64283405 26.8364888,7.83648881 C26.9242079,7.48510364 26.9781305,7.12033801 26.9946037,6.74584491 C26.5269611,6.91045904 26.0239372,7 25.5,7 C23.0147185,7 21,4.9852815 21,2.5 C21,1.97606276 21.089541,1.47303895 21.2541551,1.00539634 C20.879662,1.02186946 20.5148964,1.07579207 20.1635112,1.16351119 C17.7718077,1.76057144 16,3.92337167 16,6.5 C16,6.92731253 16.0487309,7.34324334 16.1409385,7.74253831 C15.1963581,7.2674761 14.1294153,7 13,7 C11.6803318,7 10.445956,7.36518016 9.39241323,8 L17.2560585,8 C17.0902313,7.53083162 17,7.02595314 17,6.5 C17,4.53865574 18.2547894,2.87038343 20.0053963,2.25415509 C20.0018113,2.33565523 20,2.41761609 20,2.5 C20,5.53756627 22.4624337,8 25.5,8 C25.5823839,8 25.6643448,7.99818867 25.7458449,7.99460366 C25.4882557,8.72637364 25.046841,9.37150855 24.4770358,9.87457345 L24.4770358,9.87457345 C23.6189624,9.32115547 22.5969862,9 21.5,9 C20.441357,9 19.4525719,9.29909701 18.6135384,9.81739735 C18.3965787,9.52668437 18.1575674,9.25339253 17.8989829,9 L8.10101712,9 L8.10101712,9 L8.10101712,9 Z M6.67363109,11 C6.52129914,11.3206664 6.39262951,11.6547518 6.28987864,12 L6.28987864,12 L26.4002905,12 C26.2173943,11.6422183 25.9964662,11.3071077 25.742838,11 L6.67363109,11 L6.67363109,11 L6.67363109,11 Z M6.07088885,13 C6.02417196,13.326603 6,13.6604787 6,14 L6,14 L26.9775785,14 C26.9466322,13.6565902 26.8841207,13.3222824 26.7929675,13 L6.07088885,13 L6.07088885,13 Z M5.00149591,15 C4.62285631,15.2845141 4.28586845,15.6214836 4.00133323,16 L4.00133323,16 L29.0022,16 C28.717374,15.6203048 28.3797114,15.2825337 28,14.9975864 L28,15 L5.00149591,15 L5.00149591,15 L5.00149591,15 Z M4,22.0029306 C3.76820444,21.6943993 3.57131711,21.3581364 3.41513574,21 L3.41513574,21 L29.5829563,21 C29.426753,21.356898 29.2300536,21.6921867 28.9986668,22 L4,22 L4,22.0029306 L4,22.0029306 L4,22.0029306 Z M4.99678642,23 C5.83212269,23.6279105 6.87136383,24 7.99943992,24 L25.0005601,24 C26.1252678,24 27.163232,23.627633 27.9985041,23 L4.99678642,23 L4.99678642,23 L4.99678642,23 Z" id="cloud-moon-fog" sketch:type="MSShapeGroup"></path>
        </g>
    </g>
</svg>

<svg width="32" height="32" xmlns="http://www.w3.org/2000/svg"><path d="M3.1 18c.071-.348.178-.682.317-1h26.168c.138.318.245.652.315 1H3.1zM3 19c0 .342.034.677.1 1h26.8c.065-.323.1-.658.1-1H3zM8.101 9c-.312.306-.596.64-.846 1h18.488a5.483 5.483 0 0 0 1.252-3.254 4.5 4.5 0 0 1-5.74-5.74 5.502 5.502 0 0 0-5.113 6.737A6.97 6.97 0 0 0 12.999 7c-1.32 0-2.554.365-3.608 1h7.864a4.502 4.502 0 0 1 2.75-5.746 5.5 5.5 0 0 0 5.74 5.74 4.506 4.506 0 0 1-1.269 1.88A5.474 5.474 0 0 0 21.5 9c-1.059 0-2.047.3-2.886.817A7.04 7.04 0 0 0 17.899 9H8.101zm-1.427 2c-.153.32-.281.655-.384 1H26.4a5.508 5.508 0 0 0-.657-1H6.673zm-.603 2A7.06 7.06 0 0 0 6 14h20.978a5.48 5.48 0 0 0-.185-1H6.071zM5 15a5.038 5.038 0 0 0-1 1h25.001A5.02 5.02 0 0 0 28 14.998V15H5.001zM4 22.003A4.992 4.992 0 0 1 3.415 21h26.168a5.003 5.003 0 0 1-.584 1H4v.003zm.997.997c.835.628 1.874 1 3.002 1h17.002a4.974 4.974 0 0 0 2.998-1H4.997z" fill="#929292" fill-rule="evenodd"/></svg>
